!!!!SEGMENT: Crp1002b-Missa_A_lombre_dung_buissonet-Gloria
!!!id: Crp1002b
!!!AGN: Mass; Gloria
!!!voices: 4
!!!OPR: Missa A l'ombre d'ung buissonet
!!!COM: Carpentras
!!!OTL: Gloria
**kern	**kern	**kern	**kern
*part4	*part3	*part2	*part1
*staff4	*staff3	*staff2	*staff1
*I"Bassus	*I"Tenor	*I"Altus	*I"Superius
*I'B.	*I'T.	*I'A.	*I'S.
*clefGv2	*clefG2	*clefG2	*clefG2
*k[]	*k[]	*k[]	*k[]
*M2/1	*M2/1	*M2/1	*M2/1
*met(C|)	*met(C|)	*met(C|)	*met(C|)
=1	=1	=1	=1
!!section: Et in terra pax
!!!OMD: Et in terra pax
0r	0r	2.g	1r
.	.	4g	.
.	.	2g	2.dd
.	.	2g	.
.	.	.	4dd
=2	=2	=2	=2
0r	2.d	2.d	2dd
.	.	.	2dd
.	4d	4e	.
.	2d	4f	2.a
.	.	4g	.
.	2d	[2a	.
.	.	.	4b
=3	=3	=3	=3
0r	2A	2a]	4cc
.	.	.	4dd
.	1c	2g	1ee
.	.	2g	.
.	2d	2d	2dd
=4	=4	=4	=4
1r	1e	2g	2dd
.	.	2g	2cc#i
1G	1d	2g	1dd
.	.	2g	.
=5	=5	=5	=5
2G	2r	2.d	1r
2G	2d	.	.
.	.	4e	.
2D	2d	4f	1ff
.	.	4g	.
[2F	2d	[2a	.
=6	=6	=6	=6
2F]	2A	2a]	2ff
2G	2B	1g	1ee
1A	2.c	.	.
.	.	2f#i	4dd
.	4d	.	4cc
=7	=7	=7	=7
0G	1e	0g	2.b
.	.	.	4a
.	1d	.	1b
=8	=8	=8	=8
1d	1f	0r	0a
2d	2f	.	.
2c	2e	.	.
=9	=9	=9	=9
2.f	1.d	2r	0r
.	.	1a	.
4e	.	.	.
2f	.	.	.
2e	2c	[2cc	.
=10	=10	=10	=10
4e	2.A	4cc]	0r
4d	.	4b	.
4c	.	4a	.
4B	4B	4g	.
4A	4c	4f	.
4G	4B	4e	.
2B	[2d	[2g	.
=11	=11	=11	=11
2A	2d]	2g]	0r
4G	2c	2f	.
4F	.	.	.
2G	2c	2f	.
2G	2B	2e	.
=12	=12	=12	=12
1F	2c	2f	0r
.	1f	1a	.
[1f	.	.	.
.	2e	[2cc	.
=13	=13	=13	=13
2f]	2d	4cc]	1.ff
.	.	4b	.
2e	2c	4a	.
.	.	4g	.
2d	2d	2f	.
2c	2e	[2g	2ee
=14	=14	=14	=14
2.B-X	1f	2g]	1.dd
.	.	1f	.
4A	.	.	.
1G	1g	.	.
.	.	2e	4cc
.	.	.	4b
=15	=15	=15	=15
1F	2c	2f	2.a
.	2f	2a	.
.	.	.	4b
1r	2e	2g	2cc
.	2d	2f	[2dd
=16	=16	=16	=16
2r	2.f	1a	2dd]
2F	.	.	1cc
.	4e	.	.
2G	4d	1g	.
.	4c	.	.
2G	2d	.	2b
=17	=17	=17	=17
2A	1c	1e	0cc
2A	.	.	.
1F	2r	2r	.
.	2c	2f	.
=18	=18	=18	=18
1B-i	2d	2g	1r
.	2d	2g	.
[1A	2e	1a	2r
.	2e	.	2ee
=19	=19	=19	=19
1A]	1c	2a	2ee
.	.	2.cc	2ee
2r	1f	.	1a
.	.	4b	.
2A	.	4a	.
.	.	4g	.
=20	=20	=20	=20
2A	1e	1a	1ee
2A	.	.	.
1D	2r	2r	1ff
.	2d	2a	.
=21	=21	=21	=21
1A	2d	2a	1ee
.	2c	2a	.
1B	2d	1d	1dd
.	[2f	.	.
=22	=22	=22	=22
1A	4f]	1a	1cc
.	4e	.	.
.	2c	.	.
1G	2d	1b	1r
.	[2e	.	.
=23	=23	=23	=23
2F	2e]	1a	0r
4E	1d	.	.
4D	.	.	.
1E	.	1g	.
.	2c#i	.	.
=24	=24	=24	=24
1D	1d	1f	2.dd
.	.	.	4dd
2r	2r	2r	2dd
[2D	[2f	[2a	2dd
=25	=25	=25	=25
2D]	2f]	2a]	2.a
2D	2f	2a	.
.	.	.	4b
2A	2e	2a	4cc
.	.	.	4dd
2A	2c	2a	[2ee
=26	=26	=26	=26
2B	2d	2g	2ee]
2B	2d	2g	2dd
2A	2e	2a	2dd
2A	2e	2a	2cc#i
=27	=27	=27	=27
2D	2d	2a	1dd
2D	2f	2a	.
2A	2e	2a	1r
2A	2c	2a	.
=28	=28	=28	=28
2D	2.d	2.f	1ff
1d	.	.	.
.	4e	4g	.
.	4f	2a	2ff
.	4d	.	.
2c	[2g	2e	2ee
=29	=29	=29	=29
2.B-X	2g]	1f	1.dd
.	2f	.	.
4A	.	.	.
1G	2f	1g	.
.	2e	.	4cc
.	.	.	4b
=30	=30	=30	=30
1F	2f	1c	2.a
.	1a	.	.
.	.	.	4b
1r	.	1r	2cc
.	2g	.	[2dd
=31	=31	=31	=31
0r	2.f	2.a	2dd]
.	.	.	1cc
.	4e	4g	.
.	1d	2f	.
.	.	2f	2b
=32	=32	=32	=32
2r	2c	2e	1cc
1A	1f	1c	.
.	.	.	1r
2G	2e	2g	.
=33	=33	=33	=33
2.F	2d	1a	2.dd
.	1c	.	.
4E	.	.	4dd
1D	.	1f	2dd
.	2B	.	2dd
=34	=34	=34	=34
1C	1c	1e	1ee
2.F	2.A	1a	2.ff
4F	4A	.	4ee
=35	=35	=35	=35
2G	2B	2r	2dd
2G	2B	2d	2dd
2F	2c	1f	2a
2D	[2d	.	[2b-X
=36	=36	=36	=36
1A	2d]	2e	2b-]
.	2c	1f	1a
1B	1d	.	.
.	.	4e	2g
.	.	4d	.
=37	=37	=37	=37
0A	1e	2.c	[0a
.	.	4d	.
.	1r	4e	.
.	.	4f	.
.	.	[2e	.
=38	=38	=38	=38
1D	1f	4e]	0a]
.	.	4d	.
.	.	1d	.
2A	2e	.	.
2A	2e	2c#i	.
=39	=39	=39	=39
1B-i	2.d	1d	0r
.	4e	.	.
2A	4f	2r	.
.	4g	.	.
2F	[2a	[2d	.
=40	=40	=40	=40
1G	2a]	2d]	1b-X
.	1g	2d	.
1D	.	2d	2a
.	2f#i	2d	2a
=41	=41	=41	=41
[0G	1.g	1.d	2.g
.	.	.	4a
.	.	.	4b
.	.	.	4cc
.	2f	2d	[2dd
=42	=42	=42	=42
0G]	2e	2g	2dd]
.	4d	2g	1cc
.	4c	.	.
.	2d	1g	.
.	2d	.	2b
=43	=43	=43	=43
0C	0c	1r	2.cc
.	.	.	4dd
.	.	1cc	4ee
.	.	.	4ff
.	.	.	[2gg
=44	=44	=44	=44
0r	0r	1b	2gg]
.	.	.	2dd
.	.	2g	2ee
.	.	[2a	[2ff
=45	=45	=45	=45
0r	0r	4a]	4ff]
.	.	4g	4ee
.	.	4f	4dd
.	.	4e	4cc
.	.	2d	4b
.	.	.	4a
.	.	[2a	[2cc
=46	=46	=46	=46
0r	1r	2a]	2cc]
.	.	1g	2b
.	1d	.	1a
.	.	2f#i	.
=47	=47	=47	=47
1r	2e	1g	0g
.	2c	.	.
1c	1e	2r	.
.	.	[2g	.
=48	=48	=48	=48
1B	1d	2g]	1r
.	.	2g	.
1G	2r	1b-X	1gg
.	[2d	.	.
=49	=49	=49	=49
2r	4d]	2.a	1ff
.	4c	.	.
1d	4d	.	.
.	4e	4g	.
.	2f	4a	2dd
.	.	4b	.
[2c	2g	[2cc	[2ee
=50	=50	=50	=50
4c]	2e	1.cc]	4ee]
4B	.	.	4dd
4A	1a	.	4cc
4G	.	.	4b
2F	.	.	2a
2G	2g	2b	[2ee
=51	=51	=51	=51
2A	2f	2a	4ee]
.	.	.	4dd
2B	4e	2g	1dd
.	4d	.	.
1A	1e	1a	.
.	.	.	2cc#i
=52	=52	=52	=52
0Dl	0dl	0al	0ddl
=53||	=53||	=53||	=53||
*M2/1	*M2/1	*M2/1	*M2/1
*met(C|)	*met(C|)	*met(C|)	*met(C|)
!!section: Qui tollis
!!!OMD: Qui tollis
0r	0r	1d	1dd
.	.	2g	2dd
.	.	2g	2dd
=54	=54	=54	=54
0r	0r	2.f	2.a
.	.	4g	4b
.	.	4a	4cc
.	.	4f	4dd
.	.	2g	[2ee
=55	=55	=55	=55
0r	0r	2d	2ee]
.	.	2f	2dd
.	.	1e	2dd
.	.	.	2cc#i
=56	=56	=56	=56
1D	1d	1d	0dd
2G	2d	1r	.
2G	2d	.	.
=57	=57	=57	=57
2.F	2.A	0r	0r
4G	4B	.	.
4A	4c	.	.
4G	4d	.	.
2A	[2e	.	.
=58	=58	=58	=58
4G	4e]	2r	0r
4D	4d	.	.
2F	1d	2d	.
1E	.	2g	.
.	2c#i	2g	.
=59	=59	=59	=59
1D	1d	2f	1ff
.	.	1a	.
1r	1r	.	2ff
.	.	2g	2ee
=60	=60	=60	=60
2r	2r	2.f	1.dd
2D	2A	.	.
.	.	4e	.
2G	2B	2d	.
2G	2B	2e	4cc
.	.	.	4b
=61	=61	=61	=61
2F	1.c	1f	2.a
1A	.	.	.
.	.	.	4b
.	.	2r	2cc
2G	2B	2g	[2dd
=62	=62	=62	=62
2F	1c	2a	2dd]
2E	.	2g	1cc
2F	1d	2f	.
2G	.	2d	2b
=63	=63	=63	=63
1C	1c	1e	1cc
1r	2.f	2.a	1r
.	4f	4a	.
=64	=64	=64	=64
0r	2f	2a	2.dd
.	2f	2a	.
.	.	.	4dd
.	2g	2b	2dd
.	2g	2b	2dd
=65	=65	=65	=65
0r	2c	2cc	2ee
.	2c	2cc	2ee
.	[1d	1a	2.ff
.	.	.	4ee
=66	=66	=66	=66
0r	1d]	2.a	2dd
.	.	.	2dd
.	.	4g	.
.	1d	4f	2a
.	.	4e	.
.	.	[2f	[2b-X
=67	=67	=67	=67
0r	1A	4f]	2b-]
.	.	4e	.
.	.	1e	1a
.	1B-X	.	.
.	.	2d	2g
=68	=68	=68	=68
2.c	1A	1e	1a
4c	.	.	.
2c	2.e	2.a	1r
2c	.	.	.
.	4e	4a	.
=69	=69	=69	=69
2d	2f	2a	0r
2d	2f	2a	.
2G	2g	2b	.
2G	2g	2b	.
=70	=70	=70	=70
1A	2.c	2cc	[0ee
.	.	2a	.
.	4d	.	.
1A	2e	2.cc	.
.	4A	.	.
.	4B	8bL	.
.	.	8aJ	.
=71	=71	=71	=71
[0E	4c	4g	0ee]
.	4d	4f	.
.	4e	4e	.
.	4f	4d	.
.	2g	4e	.
.	.	4f	.
.	[2e	4g	.
.	.	4a	.
=72	=72	=72	=72
0E]	2e]	4b	0ee
.	.	4cc	.
.	4d	1a	.
.	4c	.	.
.	4B	.	.
.	4A	.	.
.	2B	2g#i	.
=73	=73	=73	=73
2.A	1A	2.a	2.cc
4A	.	8gL	4cc
.	.	8fJ	.
2A	1r	2e	2cc
2A	.	[2f	2cc
=74	=74	=74	=74
2G	1r	2f]	2b
2G	.	2e	2b
2.F	2.c	2f	2.a
.	.	[2a	.
4G	4c	.	4b
=75	=75	=75	=75
1A	2c	4a]	4cc
.	.	4g	4dd
.	2c	4e	1ee
.	.	4f	.
1r	2B	4g	.
.	.	2a	.
.	2B	.	2dd
.	.	4g#i	.
=76	=76	=76	=76
0r	2.A	1a	1ff
.	4B	.	.
.	4B	1r	1ee
.	4c	.	.
.	4d	.	.
.	4c	.	.
=77	=77	=77	=77
2.F	4d	2.a	2r
.	4e	.	.
.	2.f	.	2cc
4F	.	4a	.
2F	.	2a	2dd
.	4e	.	.
2F	[2d	2a	2dd
=78	=78	=78	=78
2E	2d]	2g	2ee
2E	2c#i	2g	2ee
2.D	1d	2.f	1a
4E	.	4g	.
=79	=79	=79	=79
4F	0r	1a	0r
4G	.	.	.
4A	.	.	.
4F	.	.	.
4G	.	1d	.
4A	.	.	.
[2B-i	.	.	.
=80	=80	=80	=80
4B-]	0r	1r	1b-X
4A	.	.	.
1G	.	.	.
.	.	2.c	2a
2F#i	.	.	2a
.	.	4d	.
=81	=81	=81	=81
0G	0r	4e	2.g
.	.	4f	.
.	.	1g	.
.	.	.	4a
.	.	.	4b
.	.	.	4cc
.	.	2d	[2dd
=82	=82	=82	=82
1r	1e	2g	4dd]
.	.	.	4cc
.	.	2g	1cc
1G	2d	1g	.
.	2d	.	2b
=83	=83	=83	=83
2A	2.c	1e	1cc
1c	.	.	.
.	4d	.	.
.	4e	1r	1r
.	4f	.	.
2B	[2g	.	.
=84	=84	=84	=84
2A	4g]	1.r	0r
.	4f	.	.
4G	1f	.	.
4F	.	.	.
1G	.	.	.
.	2e	2g	.
=85	=85	=85	=85
1F	1f	2a	2.cc
.	.	2.cc	.
.	.	.	4dd
1r	1r	.	4ee
.	.	4b	4ff
.	.	4g	[2gg
.	.	4a	.
=86	=86	=86	=86
0r	0r	2b-X	2gg]
.	.	2b-i	2dd
.	.	1a	2ee
.	.	.	2ff
=87	=87	=87	=87
1r	1f	1d	4ff
.	.	.	4ee
.	.	.	4dd
.	.	.	4cc
2r	2g	2r	4b
.	.	.	4a
[2F	[2a	[2f	[2cc
=88	=88	=88	=88
2F]	2a]	4f]	2cc]
.	.	4e	.
2G	1g	4d	2b
.	.	4c	.
1D	.	1d	1a
.	2f#i	.	.
=89	=89	=89	=89
2r	1g	2.B	1g
2.G	.	.	.
.	.	4c	.
.	1g	1d	1r
4A	.	.	.
4B	.	.	.
4c	.	.	.
=90	=90	=90	=90
2d	1f	0r	0r
2A	.	.	.
2B	2d	.	.
[2c	[2e	.	.
=91	=91	=91	=91
4c]	4e]	0r	0r
4B	4d	.	.
4A	4c	.	.
4G	4B	.	.
4F	2A	.	.
4E	.	.	.
[2G	[2e	.	.
=92	=92	=92	=92
2G]	4e]	0r	1r
.	4d	.	.
2F	1d	.	.
1E	.	.	1gg
.	2c#i	.	.
=93	=93	=93	=93
1D	1d	2r	1ff
.	.	2a	.
1r	1r	2b	2dd
.	.	[2cc	[2ee
=94	=94	=94	=94
0r	0r	4cc]	4ee]
.	.	4b	4dd
.	.	4a	4cc
.	.	4g	4b
.	.	4f	4a
.	.	4g	4b
.	.	4a	4cc
.	.	4f	4dd
=95	=95	=95	=95
0r	1r	4g	4ee
.	.	4d	4ff
.	.	2f	2dd
.	1A	2e	2dd
.	.	2e	2cc#i
=96	=96	=96	=96
1r	1.B	1d	1dd
[1G	.	1d	[1b
.	2c	.	.
=97	=97	=97	=97
2G]	1d	1g	2b]
2G	.	.	2g
1G	1d	1g	1b
=98	=98	=98	=98
0Dl	0dl	0f#Xl	0al
=99||	=99||	=99||	=99||
*M3/1	*M3/1	*M3/1	*M3/1
*met(O|/3)	*met(O|/3)	*met(O|/3)	*met(O|/3)
!!section: Cum Sancto Spiritu
!!!OMD: Cum Sancto Spiritu
0.r	0.r	0.r	1a
.	.	.	1a
.	.	.	1a
=100	=100	=100	=100
0.r	0.r	1d	0dd
.	.	1d	.
.	.	1d	1dd
=101	=101	=101	=101
0.r	0.r	0g	0dd
.	.	1g	1dd
=102	=102	=102	=102
0.r	0.r	0g	0ee
.	.	1g	1dd
=103	=103	=103	=103
0.r	1A	0a	1.cc
.	1A	.	.
.	.	.	2dd
.	1A	1a	1ee
=104	=104	=104	=104
1D	0d	1.f	0a
1D	.	.	.
.	.	2g	.
1D	1d	1a	1a
=105	=105	=105	=105
0G	0d	1.g	1.b
.	.	2a	2cc
1G	1d	2b	1dd
.	.	2cc	.
=106	=106	=106	=106
0G	0e	1b	1g
.	.	2g	0gg
.	.	1cc	.
1G	1d	.	.
.	.	2b	.
=107	=107	=107	=107
0A	1.c	0cc	1.ee
.	2d	.	2ff
1G	1e	1b	1gg
=108	=108	=108	=108
1.F	1.A	0a	1cc
.	.	.	1ff
2G	2B	.	.
1A	1c	1a	1ee
=109	=109	=109	=109
1.D	1d	0a	0ff
.	1.f	.	.
2E	.	.	.
1F	.	1a	[1dd
.	2e	.	.
=110	=110	=110	=110
1G	0d	1b	1dd]
0E	.	0g	0ee
.	1c#i	.	.
=111	=111	=111	=111
0D	0d	1f	1.ff
.	.	0a	.
.	.	.	2dd
1D	1A	.	1ff
=112	=112	=112	=112
1.A	1.c	0.a	1.ee
2B	2d	.	2dd
1c	2e	.	2cc
.	4d	.	2b
.	4e	.	.
=113	=113	=113	=113
1d	1.f	0.r	0a
1D	.	.	.
.	2d	.	.
1D	1f	.	1r
=114	=114	=114	=114
[0.A	1.e	1a	1.cc
.	.	1a	.
.	2d	.	2dd
.	2c	1a	2ee
.	2B	.	4dd
.	.	.	4ee
=115	=115	=115	=115
0A]	2A	0a	1ff
.	2B	.	.
.	2c	.	0ee
.	2d	.	.
1r	2e	1g	.
.	2c	.	.
=116	=116	=116	=116
1r	2d	1f	[0.a
.	2e	.	.
1.D	1.f	1d	.
.	.	[1f	.
2E	2e	.	.
=117	=117	=117	=117
2F	0d	1f]	0a]
2G	.	.	.
0A	.	0e	.
.	1c	.	1r
=118	=118	=118	=118
1D	0f	1a	2a
.	.	.	2b
0A	.	1a	2cc
.	.	.	2dd
.	1e	1a	2ee
.	.	.	2cc
=119	=119	=119	=119
0D	1f	1a	2dd
.	.	.	2ee
.	1a	1f	1ff
[1G	[1g	1b-i	2ee
.	.	.	2dd
=120	=120	=120	=120
1G]	2g]	1b-i	0dd
.	2f	.	.
0A	2e	0a	.
.	2d	.	.
.	1e	.	1cc#i
=121	=121	=121	=121
1.B-X	[0.dl	0f	[0.ddl
2A	.	.	.
1G	.	1g	.
=122	=122	=122	=122
1F	0.d_	1a	0.dd_
0G	.	0b-i	.
=123	=123	=123	=123
0.Dl	0.d]	0.al	0.dd]
==	==	==	==
*-	*-	*-	*-
!!!system-decoration: s1,s2,s3,s4
!!!RDF**kern: i = editorial accidental
!!!RDF**kern: l = terminal long
!!!ENC: Max Blistain
!!!END: 2025/12/08
!!!EED: Benjamin Ory
!!!EEV: 2026/02/12
!!!YEC: Copyright 2026 Benjamin Ory, All Rights Reserved
!!!ONB: Translated from MusicXML on 2026/02/12
